svgs/etsy_seller.svg

<svg width="192" height="192" viewBox="0 0 192 192" fill="none" xmlns="http://www.w3.org/2000/svg">
<path d="M25.4645 22H91.29H153.097C154.052 21.9988 154.997 22.1734 155.873 22.5129C156.75 22.8526 157.537 23.3496 158.187 23.9731C158.836 24.5964 159.335 25.3327 159.649 26.1356C159.964 26.9385 160.088 27.7906 160.015 28.6384L157.372 59.2374C157.305 60.0133 156.91 60.7379 156.268 61.2658C155.625 61.7936 154.782 62.0856 153.908 62.0834H147.127C146.64 62.0834 146.158 61.9919 145.713 61.8151C145.269 61.6382 144.871 61.3799 144.546 61.0569C144.221 60.7339 143.976 60.3536 143.828 59.9408C143.68 59.5278 143.63 59.0917 143.683 58.6609V57.3769C143.683 55 143.608 53.0109 142.866 50.946C142.124 48.8811 140.901 46.9789 139.276 45.3633C137.651 43.7479 135.662 42.4555 133.438 41.5706C131.214 40.6857 128.805 40.2283 126.369 40.2281H83.8174C81.0609 40.2281 78.4173 41.2027 76.4681 42.9374C74.5189 44.6721 73.4239 47.0248 73.4239 49.4781V85.886H102.227C105.902 85.886 109.427 84.5866 112.027 82.2736C114.625 79.9607 116.085 76.8236 116.085 73.5526V65.2763H130.917V123.64H116.085V118.447C116.085 116.828 115.726 115.224 115.03 113.728C114.334 112.231 113.313 110.872 112.027 109.726C110.739 108.581 109.212 107.673 107.53 107.053C105.849 106.433 104.047 106.114 102.227 106.114H73.4239V143.495C73.4239 144.71 73.6927 145.913 74.2151 147.036C74.7374 148.157 75.503 149.178 76.4681 150.036C77.4332 150.895 78.579 151.577 79.84 152.041C81.101 152.507 82.4525 152.745 83.8174 152.745H125.779C130.871 152.748 135.836 151.325 139.968 148.676C144.1 146.027 147.19 142.288 148.801 137.989L156.318 117.854C156.548 117.241 156.99 116.706 157.58 116.328C158.17 115.949 158.879 115.745 159.606 115.745H166.536C167.062 115.745 167.581 115.852 168.056 116.058C168.529 116.263 168.943 116.562 169.267 116.932C169.591 117.301 169.816 117.732 169.925 118.19C170.034 118.649 170.024 119.124 169.896 119.579L158.428 165.329C158.053 166.663 157.188 167.848 155.97 168.694C154.751 169.541 153.249 170 151.704 170H25.4645C25.0095 170 24.559 169.92 24.1387 169.765C23.7184 169.611 23.3364 169.384 23.0147 169.097C22.693 168.81 22.4378 168.47 22.2638 168.096C22.0896 167.723 22 167.321 22 166.916V155.829C22 155.424 22.0896 155.023 22.2638 154.649C22.4378 154.275 22.693 153.935 23.0147 153.649C23.3364 153.363 23.7184 153.136 24.1387 152.98C24.559 152.825 25.0095 152.745 25.4645 152.745H39.3225C42.0791 152.745 44.7227 151.771 46.6718 150.036C48.621 148.301 49.716 145.949 49.716 143.495V49.4781C49.716 47.0248 48.6209 44.6721 46.6718 42.9374C44.7227 41.2027 42.0791 40.2281 39.3225 40.2281H25.4645C25.0095 40.2281 24.559 40.1484 24.1387 39.9934C23.7184 39.8384 23.3364 39.6113 23.0147 39.325C22.693 39.0387 22.4378 38.6987 22.2638 38.3247C22.0896 37.9506 22 37.5497 22 37.1447V25.0834C22 24.6784 22.0896 24.2775 22.2638 23.9034C22.4378 23.5293 22.693 23.1894 23.0147 22.9031C23.3364 22.6167 23.7184 22.3897 24.1387 22.2347C24.559 22.0797 25.0095 22 25.4645 22Z" stroke="black" stroke-width="12" stroke-linecap="round" stroke-linejoin="round"/>
</svg>

<svg width="192" height="192" viewBox="0 0 192 192" fill="none" xmlns="http://www.w3.org/2000/svg"><path d="M25.465 22h127.632c.955-.001 1.9.173 2.776.513.877.34 1.664.837 2.314 1.46a6.077 6.077 0 0 1 1.462 2.163c.315.803.439 1.655.366 2.502l-2.643 30.6c-.067.775-.462 1.5-1.104 2.028a3.715 3.715 0 0 1-2.36.817h-6.781c-.487 0-.969-.091-1.414-.268a3.48 3.48 0 0 1-1.167-.758 3.01 3.01 0 0 1-.718-1.116 2.78 2.78 0 0 1-.145-1.28v-1.284c0-2.377-.075-4.366-.817-6.431-.742-2.065-1.965-3.967-3.59-5.583-1.625-1.615-3.614-2.907-5.838-3.792a19.161 19.161 0 0 0-7.069-1.343H83.817c-2.756 0-5.4.975-7.349 2.71-1.95 1.734-3.044 4.087-3.044 6.54v36.408h28.803c3.675 0 7.2-1.3 9.8-3.612 2.598-2.313 4.058-5.45 4.058-8.721v-8.277h14.832v58.364h-14.832v-5.193a11.17 11.17 0 0 0-1.055-4.719 12.352 12.352 0 0 0-3.003-4.002 14.1 14.1 0 0 0-4.497-2.673 15.35 15.35 0 0 0-5.303-.939H73.424v37.381a8.38 8.38 0 0 0 .791 3.541 9.259 9.259 0 0 0 2.253 3c.965.859 2.111 1.541 3.372 2.005 1.261.466 2.612.704 3.977.704h41.962c5.092.003 10.057-1.42 14.189-4.069s7.222-6.388 8.833-10.687l7.517-20.135a3.139 3.139 0 0 1 1.262-1.526 3.76 3.76 0 0 1 2.026-.583h6.93c.526 0 1.045.107 1.52.313.473.205.887.504 1.211.874.324.369.549.8.658 1.258.109.459.099.934-.029 1.389l-11.468 45.75c-.375 1.334-1.24 2.519-2.458 3.365-1.219.847-2.721 1.306-4.266 1.306H25.464c-.454 0-.905-.08-1.325-.235a3.49 3.49 0 0 1-1.124-.668 3.095 3.095 0 0 1-.751-1.001 2.787 2.787 0 0 1-.264-1.18v-11.087c0-.405.09-.806.264-1.18.174-.374.429-.714.75-1a3.547 3.547 0 0 1 1.125-.669c.42-.155.87-.235 1.326-.235h13.857c2.757 0 5.4-.974 7.35-2.709 1.949-1.735 3.044-4.087 3.044-6.541V49.478c0-2.453-1.095-4.806-3.044-6.54-1.95-1.735-4.593-2.71-7.35-2.71H25.464c-.454 0-.905-.08-1.325-.235a3.522 3.522 0 0 1-1.124-.668 3.085 3.085 0 0 1-.751-1 2.79 2.79 0 0 1-.264-1.18V25.083c0-.405.09-.805.264-1.18.174-.374.429-.714.75-1a3.52 3.52 0 0 1 1.125-.668c.42-.155.87-.235 1.326-.235Z" stroke="#000" stroke-width="12" stroke-linecap="round" stroke-linejoin="round"/></svg>
